X: 67
T: Pollonesse #67
M: 3/4
L: 1/16
K: Gm
Q:120
G4 G2F2 G2A2|B4 B2A2 B2c2|d2cd e2dc d2cB|B2AG FGAF D4|
G4 G2F2 G2A2|B4 B2A2 B2c2|d2cd e2dc B2AG|BAGF G4 G4:|
d4 d2e2 d2c2|B2A2 B2F2 D2B,2|f4 f2g2 f2e2|d2c2 c2Bc B4|
b4 a4 g4|f2g2 a2f2 d4|b2b2 a2a2 g2g2|f2g2 a2f2 d4|
e2d2 c2B2 A2G2|BAGF G4G4:|

